X: 0
T: Christmas, Season of Childlike Delight 
Z: Gustava Kielland
Z: Public Domain "O Jul Med Din Glede"
L: 1/4
M: 4/4
Q: 1/4=100
V: P1 name="Norwegian Carol"
%%MIDI program 1 10
V: P2 name="Staff"
%%MIDI program 2 19
V: P3 name="Staff-2"
%%MIDI program 3 54
V: P4 name="Staff-3"
%%MIDI program 4 74
V: P5 name="Staff-4"
%%MIDI program 5 32
V: P6 name="Staff-5"
%%MIDI program 6 68
V: P7 name="Staff-6"
%%MIDI program 7 70
K: C
[V: P1]  d A/G/ ^F G/E/ | E2 D2 | z4 | z4 | z4 | z4 | z4 | z4 | z4 | z4 | z4 | z4 | z4 | z4 | z4 | z4 | d A/G/ ^F G/E/ | E2 D2 | z4 | z4 | z4 | z4 | z4 | z4 | z4 | z4 | z4 | z4 | z4 | z4 | z4 | z4 | d A/G/ ^F G/E/ | E2 D2 | z4 | z4 | z4 | z4 | z4 | z4 | z4 |z3 d | ^c/c/4d/4 e/c/ A d | ^c/d/ e/c/ Az | z4 |z3 ^F | E/^F/ G/B/ A G/^C/ | E2 D2- | D2z2|]
[V: P2]  z4 | z4 | z4 | z4 | z4 | z4 | z4 | z4 | z4 | z4 | z4 | z4 | z4 | z4 | z4 | z4 | z4 |z3 D | A A/A/ ^F D/D/ | B B/B/ A A | d A/G/ ^F G/E/ | E2 D D | A A/A/ ^F D/D/ | B B/B/ A A | d A/G/ ^F G/E/ | E2 D d | ^c/c/4d/4 e/c/ A d | ^c/d/ e/c/ A d | ^c B A G | ^F E D F | E/^F/ G/B/ A G/^C/ | E2 D2 | z4 | z4 | z4 | z4 | z4 |z3 D | A A/A/ ^F D/D/ | B B/B/ A A | d A/G/ ^F G/E/ | E2 Dz | z4 |z3 d | ^c B A G | ^F E D F | E/^F/ G/B/ A G/^C/ | E2 D2- | D2z2|]
[V: P3]  z4 |z3 D | A A/A/ ^F D/D/ | B B/B/ A A | d A/G/ ^F G/E/ | E2 D D | A A/A/ ^F D/D/ | B B/B/ A A | d A/G/ ^F G/E/ | E2 D d | ^c/c/4d/4 e/c/ A d | ^c/d/ e/c/ A d | ^c B A G | ^F E D F | E/^F/ G/B/ A G/^C/ | E2 D2 | z4 |z3 D | z4 | z4 | z4 | z4 | z4 | z4 | z4 | z4 | z4 | z4 | z4 | z4 | z4 | z4 | z4 |z3 D | A A/A/ ^F D/D/ | B B/B/ A A | d A/G/ ^F G/E/ | E2 D D | A A/A/ ^F D/D/ | B B/B/ A A | d A/G/ ^F G/E/ | E2 D d | ^c/c/4d/4 e/c/ A d | ^c/d/ e/c/ A d | ^c B A G | ^F E D F | E/^F/ G/B/ A G/^C/ | E2 D2- | D2z2|]
[V: P4]  z4 |z3 D- | D3 D/D/ | G G/G/ ^F F | ^F F/E/ D ^C | ^C A,2 D | A A/A/ ^F D/D/ | G G/G/ ^F F | ^F F/E/ D D | D ^C A, ^F | G2 ^F2 | G2 ^F2 | A G ^F E | D ^C B, [=CD] | B, B, D A, | G, A, [^F,2A,2] | z4 |z3 D- | D3 D/D/ | G G/G/ ^F F | ^F F/E/ D ^C | ^C A,2 D | A A/A/ ^F D/D/ | G G/G/ ^F F | ^F F/E/ D D | D ^C A, ^F | G2 ^F2 | G2 ^F2 | A G ^F E | D ^C B, [=CD] | B, B, D A, | G, A, [^F,2A,2] | z4 |z3 D- | D3 D/D/ | G G/G/ ^F F | ^F F/E/ D ^C | ^C A,2 D | A A/A/ ^F D/D/ | G G/G/ ^F F | ^F F/E/ D D | D ^C D ^F | G2 ^F2 | G2 ^F2 | A G ^F E | D ^C B, [=CD] | B, B, D A, | G, A, [^F,2-A,2-] | [^F,2A,2]z2|]
[V: P5]  z4 | z4 | ^F,2 A, F, | G, B, Dz | A,3 G, | G,2 ^F,z | D,4 | G,/A,/ B,/^C/ Dz | A,3 A, | A,,2 ^F, A, | A,2- A,/A,/ A,/A,/ | A,2- A,/A,/ A,/A,/ | ^F, G, ^D, E, | A, ^A,, B,, =A, | G, E, ^F, G, | A,,2 D,2 | z4 | z4 | ^F,2 A, F, | G, B, Dz | A,3 G, | G,2 ^F,z | D,4 | G,/A,/ B,/^C/ Dz | A,3 A, | A,,2 ^F, A, | A,2- A,/A,/ A,/A,/ | A,2- A,/A,/ A,/A,/ | ^F, G, ^D, E, | A, ^A,, B,, =A, | G, E, ^F, G, | A,,2 D,2 | z4 | z4 | ^F,2 A, F, | G, B, Dz | A,3 G, | G,2 ^F,z | D,4 | G,/A,/ B,/^C/ Dz | A,3 A, | A,,2 ^F, A, | A,2- A,/A,/ A,/A,/ | A,2- A,/A,/ A,/A,/ | ^F, G, ^D, E, | A, ^A,, B,, =A, | G, E, ^F, G, | A,,2 D,2- | D,2z2|]
[V: P6]  z4 | z4 | D,4 | G,, B,, D,z | A,,3 A,, | A,,2 D,z | ^F,2 A, F, | G,,/A,,/ B,,/^C,/ D,z | A,,3 A,, | G,2 D, A,, | A,,4 | A,,4 | ^F,, G,, ^D, E,, | A,, ^A,, B,, =A, | G,, E,, ^F,, G,, | A,,2 D,,2 | z4 | z4 | D,4 | G,, B,, D,z | A,,3 A,, | A,,2 D,z | ^F,2 A, F, | G,,/A,,/ B,,/^C,/ D,z | A,,3 A,, | G,2 D, A,, | A,,4 | A,,4 | ^F,, G,, ^D, E,, | A,, ^A,, B,, =A, | G,, E,, ^F,, G,, | A,,2 D,,2 | z4 | z4 | D,4 | G,, B,, D,z | A,,3 A,, | A,,2 D,z | ^F,2 A, F, | G,,/A,,/ B,,/^C,/ D,z | A,,3 A,, | G,2 D, A,, | A,,4 | A,,4 | ^F,, G,, ^D, E,, | A,, ^A,, B,, =A, | G,, E,, ^F,, G,, | A,,2 D,,2- | D,,2z2|]
[V: P7]  z4 | z4 | z4 | z4 | z4 | z4 | z4 | z4 | z4 | z4 | z4 | z4 | z4 | z4 | z4 | z4 | z4 | z4 | z4 | z4 | z4 | z4 | z4 | z4 | z4 | z4 | z4 | z4 | z4 | z4 | z4 | z4 | z4 | z4 | z4 | z4 | z4 | z4 | ^F,4 | G,,/A,,/ B,,/^C,/ D,z | A,,3 A,, | A,,2 D, A,, | A,2- A,/A,/ A,/A,/ | A,2- A,/A,/ A,/A,/ | ^F,, G,, ^D, E,, | A,, ^A,, B,, =A, | G,, E,, ^F,, G,, | A,,2z2 | z4|]

